public/train-bullets/c.svg

<?xml version="1.0" standalone="no"?>
<!DOCTYPE svg PUBLIC "-//W3C//DTD SVG 1.1//EN" "http://www.w3.org/Graphics/SVG/1.1/DTD/svg11.dtd">
<svg width="100%" height="100%" viewBox="0 0 90 90" version="1.1" xmlns="http://www.w3.org/2000/svg" xmlns:xlink="http://www.w3.org/1999/xlink" xml:space="preserve" style="fill-rule:evenodd;clip-rule:evenodd;stroke-linejoin:round;stroke-miterlimit:1.41421;">
    <g id="C">
        <circle cx="45" cy="45" r="45" style="fill:rgb(40,82,173);"/>
        <path d="M30.6608,26.0221C34.5671,22.0725 39.5367,20.0977 45.5697,20.0977C53.6426,20.0977 59.5454,22.7452 63.278,28.0404C65.3396,31.0135 66.4464,33.9974 66.5983,36.9922L56.5723,36.9922C55.9212,34.6918 55.0857,32.9557 54.0658,31.7839C52.2428,29.7005 49.541,28.6589 45.9603,28.6589C42.3145,28.6589 39.439,30.1291 37.334,33.0697C35.2289,36.0102 34.1764,40.1714 34.1764,45.5534C34.1764,50.9353 35.2886,54.9664 37.513,57.6465C39.7374,60.3266 42.564,61.6667 45.9928,61.6667C49.5085,61.6667 52.1886,60.5165 54.0332,58.2161C55.0532,56.9792 55.8995,55.1237 56.5723,52.6497L66.5007,52.6497C65.6326,57.8798 63.4136,62.1332 59.8438,65.4102C56.2739,68.6871 51.7003,70.3255 46.123,70.3255C39.222,70.3255 33.7967,68.112 29.847,63.6849C25.8974,59.2361 23.9225,53.138 23.9225,45.3906C23.9225,37.0139 26.1686,30.5577 30.6608,26.0221Z" style="fill:white;fill-rule:nonzero;"/>
    </g>
</svg>

<svg xmlns="http://www.w3.org/2000/svg" xml:space="preserve" style="fill-rule:evenodd;clip-rule:evenodd;stroke-linejoin:round;stroke-miterlimit:1.41421" viewBox="0 0 90 90"><circle cx="45" cy="45" r="45" style="fill:#2852ad"/><path d="M30.66 26.022q5.86-5.925 14.91-5.924 12.109 0 17.708 7.942 3.093 4.46 3.32 8.952H56.572q-.975-3.45-2.506-5.208-2.734-3.125-8.106-3.125-5.468 0-8.626 4.41t-3.158 12.484 3.337 12.094 8.48 4.02q5.273 0 8.04-3.45 1.53-1.856 2.54-5.567H66.5q-1.302 7.845-6.657 12.76-5.355 4.916-13.721 4.916-10.351 0-16.276-6.641-5.925-6.674-5.925-18.294 0-12.565 6.739-19.369" style="fill:#fff;fill-rule:nonzero"/></svg>
